X:1
T: Dundee Hornpipe
C:
R:Reel
Q: 232
K:D
M:4/4
L:1/8
|:FG|AF DF AF dB|Ad FA fe dc|Bd GB ge fd|ec dB A2 FG|
AF DF AF dB|Ad FA fe dc|Bd GB ge fd|ec Ac d2:|
|:de|fd cd Bd Ad|FA de fd cd|eA fA gA fA|ec dB A2 de|
fd cd Bd Ad|FA de fd cd|eA fA gA fA|((3efe) ((3dcB) A2:|
